X: 24862
T: Maghera Mountain
R: reel
M: 4/4
K: Gdorian
d2 cA BGGF|DGGF GABc|dBcA BAGB|A~F3 CFAc|
dBcA BGGF|DGGF GBAG|(3EFG Ac fdcA|1 B2 AB GABc:|2 B2 AB GBAG||
F2 Ac f2 ef|g2 ag gfdf|e~c3 acgc|ecgc acgc|
BGGF G3 B|AFFE F3 A|B2 ge fdcA|B2 AB GBAG:|

